X:1
T:THE SPIDER'S DANCE
T:THE SPIDER'S DANCE.
T:C.C. CONVERSE.
T:unknown
T:unknown
T:unknown
T:unknown
T:unknown
T:unknown
C:C.C. CONVERSE.
Z:unknown
%%score { 1 | 2 }
L:1/8
M:3/4
K:Ab
V:1 treble nm="Piano" snm="Pno."
V:2 bass 
V:1
"^R.H.""_Leggiero."!8va(! (f''/d''/b'/g'/)"^L.H." (f'/a'/b'/=d''/)"^R.H." (g''/f''/_d''/g'/) | %1
"^R.H." (f'/e'/b/g/)"^L.H." (e/a/_c'/=d'/)"^R.H." (e'/_d'/b/g/) | %2
 (f'/!8va)!"^loco"d/B/G/) (F/A/=B/=d/) (e/_d/_B/G/) | %3
"_--------------------------------------do" (F/D/B,/G,/) z2 (E/_D/_B,/G,/) | %4
 z/!ff! F/"_Con forza." z/"^cres.                               e                  poi                       dim." F/ z/ F/ z/ F/ z/ F/ z/ F/ | %5
 z/ F/ z/ F/ z/ F/ z/ F/ z/ F/ z/ F/ | %6
!p! z/"^rall - - - - - - - - - - - - - - - - - - - - - -  en         -        -          tau         -        -       -      -     -     -         do." F/ z/ F/ z/ F/ z/ F/ z/ F/ z/ F/ | %7
 z/ F/ z/ F/ z/ F/ z/ F/ z/ F/ z/ F/ | z6 |!pp! z6 | (_D6 | D6) |: %12
!p!"^Con abbandono espressione." C/"_Marcato il besso."E/A/c/ e/a/c'/e'/!8va(! a'/4b'/4a'/4g'/4a'/b'/ | %13
 c''/b'/a'/e'/ e''/!8va)!"^loco"d'/a/e/ c/B/A/C/ | %14
!8va(! d/e/g/b/ (e'/g'/b'/e''/ g''/c''/)!8va)!!8va(!c'' | b'/a'/c''' z2 z2!8va)! :| %16
"^loco"!f! z/"^Con  Brio." B,/[G,G]/B,/"_con forza." z/ d'/[gg']/d'/ z/"^8va...."!8va(! d''/[g'g'']/d''/!8va)! | %17
 z/"^loco" d'/[gg']/d'/ z/ B/[Gg]/B/ z/ B,/[G,G]/B,/ | %18
 z/"_cres e poi dim." F/[Dd]/F/ z/ F/[D=B]/F/ z/ F/[Dc]/F/ | %19
 z/ f/[dc']/f/ z/ f/[d=b]/f/ z/ f/[d_b]/f/ | %20
"_loco" z/ A,/[F,E]/A,/ z/"_ten." A,/[F,E]/A,/ z/ A,/[F,C]/A,/ | %21
 z/ A,/[F,_B,]/A,/ z/ A,/[F,C]/A,/ z/ A,/[F,D]/A,/ | z/!<(! G,/B,/E/ G/B/e/g/ b/d'/e'/g'/!<)! | %23
!>(! f'/e'/d'/g/ f/e/B/G/ F/E/B,/G,/!>)! | %24
 z/ f/"_Ped."[dc']/f/ z/ b/[gg']/ z/"_legg."!8va(! b'/[g'g'']/b'/!8va)! z/ | %25
 z/ b/[gg']/b/ z/ B/[Gg]/B/ z/ B,/[G,G]/B,/ | %26
 z/"_cres.  e      poi      dim." F/[Dd]/F/ z/ F/D/[D=d]/ z/ F/[Dc]/F/ | %27
 z/ f/[dc']/f/ z/ f/[c=b]/f/ z/ f/[B_b]/f/ | %28
"_loco" z/ A,/[E,E]/A,/ z/!>(! A,/[D,D]/A,/ z/ A,/[F,C]/A,/!>)! | %29
 z/ A,/"_ten."[F,B,]/A,/ z/!>(! A,/[F,B,]/A,/ z/ A,/[F,D]/A,/!>)! | %30
!<(! B,/D/E/G/ B/e/g/b/ d'/e'/d'/c'/!<)! | %31
 d'/c'/b/a/"_rall-en-tando." f/e/B/G/ F/!fermata!E/!fermata!=D/!fermata!_D/ |: %32
!p! C/"_delicato."E/A/c/ e/a/c'/g'/!8va(! b'/a'/g'/b'/ | %33
 c''/b'/a'/e'/!8va)!"^loco" c'/b/a/e/ c/B/G/C/ |!<(! D/E/G/B/ e/g/b/f'/ e'/b'/a'/!<)!!>!g'/ | %35
!8va(! d/e/g/b/ e'/g'/b'/e''/ b''/a''/!8va)!!>!g' |"^loco" C/E/A/c/ e/a/c'/f'/!8va(! a'/b'/a'/b'/ | %37
 c''/b'/a'/e'/!8va)!"^loco" c'/b/a/c/ c/B/A/C/ |!f! D/E/G/B/ e/g/d'/e'/ g'/f'/e'/!8va(!e''/ | %39
!8va(! b'/g'/c'''!8va)! z2 z2!8va)! | %40
"^Animato."!f! A"_mercato il tema."d/f/ [ea]/ A2[K:bass] z/ D, | %41
 !>!C,!>!B,,"^ten." !>!A,,2[K:treble] z2 |!pp!{a} A z{b} B z{c'} c z | %43
!<(!{d'} d[ee'] [ff'] z z2!<)! |!f! B"^Ped."(d/f/ a/) A2[K:bass]"_cresc." z/{E,} D, | %45
 !>!C,!>!B,, !>!A,,2[K:treble] z2 |1!pp!"^ten."{a} A z{b} B z{c'} c z :|2"^ten."{d'} Ba/f/ d2 z2 || %48
!f! c2[K:bass] z!pp! C, F,,>C, | D,>C, B,,2[K:treble] z2 |!f! d2 E[K:bass] z/ B,,/!pp! E,,>B,, | %51
 A_c/=d/ f/a/b/d'/ f/a/!8va(!b'/f''/ | =e''/_e''/d''/c''/ b'/a'/g'/f'/!8va)!"^loco" e'/d'/c'/b/ | %53
 a/=g/f/e/ d/c/B/A/ G/F/E/D/ | C/B,/A,/_G,/ z z/ z2 |!f! z"_Ped." a/ A2[K:bass] z/ z D, | %56
 C,B,,"^ten." !>!A,,2[K:treble]!pp! z2 |{a} A z{b} B z{c'} c!f! z |{d'} d[ee']"^ten." [ff']2 z2 | %59
"_Ped." A(d/f/ a/) A2[K:bass] z/{E,} D, | !>!C,!>!B,,"^ten." !>!G,,2[K:treble]!pp! z2 | %61
{a} A z{b} B z{c'} c z |1{a} Aa/f/ d2 z2 ||2{d'} da/f/ d2 z z |] %64
!8va(! f''/d''/b'/g'/ f'/a'/_c''/=d''/ f''/_d''/b'/f'/!8va)! | f'/d'/b/g/ f/a/=d'/f'/ e'/_d'/b/g/ | %66
 f/d/B/G/ F/=A/_c/=d/ e/_d/B/G/ | F/D/B,/G,/ z/ z/ z/ z/ E/D/B,/G,/ | %68
 z/ F/ z/ F/ z/ F/ z/ F/ z/ F/ z/ F/ | z/ F/ z/ F/ z/ F/ z/ F/ z/ F/ z/ F/ | %70
 z/ F/ z/ F/ z/ F/ z/ F/ z/ F/ z/ F/ | z/ F/ z/ F/ z/ F/ z/ F/ z/ F/ z/ F/ | z6 | z6 | z6 | z6 |] %76
!p! C/E/A/c/ e/a/c'/e'/!8va(! a'/b'/a'/g'/ | a'/b'/c''/b'/!8va)! c'/b/a/e/ c/B/A/C/ | %78
 D/E/!8va(!g/b/ (e'/g'/b'/c''/ g''/f''/)!>!c''!8va)! | %79
!p!"^loco" C/E/A/c/ e/a/c'/e'/ a/4b/4a/4g/4a/b/ | c'/b/a/e/ c'/b/a/e/ c/B/A/C/ | %81
 D/E/G/B/ (e/g/b/e'/ f'/)e'e'/ |!8va(! b'/a'/a''/a'/ a''/a'/a''/a'/ a''/a'/a''/a'/ | %83
 b'/a'/a''/a'/ z2 z2 | b'/a'/a''/a'/ a''/a'/a''/a'/ z2 | b'/a'/a''/a'/ z2 z2 | %86
 b'/a'/a''/a'/ a''/a'/a''/a'/ z2 | b'/a'/a''/a'/ a''/a'/a''/a'/ z2 | .a''2 z2!8va)! z2 | %89
"_FINE." z6 |] %90
V:2
"^ac--------------------------------cell--------------------------------er---------------------------------------------an-------" z6 | %1
 z6 | z6 | z z (F,/A,/=B,/=F/) z2 | %4
 [E,,E,]/F,/[=D,,=D,]/F,/ [E,,E,]/F,/[D,,D,]/F,/ [E,,E,]/F,/[D,,D,]/F,/ | %5
 [E,,E,]/F,/[=D,,=D,]/F,/ [E,,E,]/F,/[D,,D,]/F,/ [E,,E,]/F,/[D,,D,]/F,/ | %6
 [E,,E,]/=D/E/D/ E/D/E/D/ E/D/E/D/ | E/=D/E/D/ E/D/E/D/ E/D/E/D/ | E6 | =D6 | z6 | z6 |: %12
 A,,2 C,2 A,2 | C2 E2 A2 |{E,,} E,2 B,2 G2 | [CA]2 [A,,,A,,]2 z2 :| %16
 [E,,E,] z[K:treble] e z e'[K:treble] z | e z E z[K:bass] E, z | %18
 [B,,,B,,]/ z[K:treble] z/ z/ A z/ A z | [B,,B,]/ z[K:treble] z/!8va(! a z a[K:bass] z | %20
 [B,,B,]!8va)![K:treble] z z/ B2 B, z/ |[K:bass] [B,,,B,,]2[K:treble] B2 B,2 | %22
[K:bass] B,,2 B,2 E2 | G2 z2 z2 | [E,,E,][K:treble]e z e' z z | e2[K:treble] E[K:bass] z E, z | %26
 [B,,,B,,]2[K:treble] A z A[K:bass] z | [B,,B,][K:treble]A z!8va(! a[K:bass] B, z!8va)! | %28
 [B,,,B,,]2[K:treble] B z B,[K:bass] z | [B,,,B,,]2[K:treble] B z B,[K:bass] z | E,2 B,2 E2 | %31
 G2 z2 z2 |: A,,2 E,2 A,2 | C2 E2 A2 | E,2 G,2 B,2 | G,,2 B,,2 E,2 | A,,2 E,2 A,2 | C2 E2 A z | %38
 E,2 B,2 G2 | [CA]2 [A,,,A,,]2 z z | [D,,D,][A,DF] [A,DF][A,DF] [A,DF][A,DF] | %41
 [A,,A,][A,EG] [A,EG][A,EG] [A,EG][A,EG] | [A,EG][A,EG] [A,EG][A,EG] [A,EG][A,EG] | %43
 [A,,A,][A,EG] [A,EG][A,EG] [A,EG][A,EG] | [D,,D,][A,FA] [A,FA][A,FA] [A,FA][A,FA] | %45
 [A,,A,][A,EG] [A,EG][A,EG] [A,EG][A,EG] |1 [D,,D,][A,DF] [A,DF][A,DF] [A,DF][A,DF] :|2 %47
 [D,,D,][F,B,D] [F,B,D][F,B,D] [F,B,D]2 || [F,A,E][F,A,E] [F,A,E][F,A,E] [F,A,E][F,A,E] | %49
 [F,B,D][F,B,D] [F,B,D][F,B,D] [F,B,D][F,B,D] | [E,G,D][E,G,D] [E,G,D][E,G,D] [E,G,D][E,D] | %51
 [=D,A,B,][D,A,B,] [D,A,B,][D,A,B,] [D,A,B,][D,A,B,] | %52
 [E,G,B,][E,G,B,] [E,G,B,][E,G,B,] [E,G,B,][E,G,B,] | A, z z/ z/ z/ z/ z/ z/ z/ z/ | %54
 A,/ z/ z/ F,/ E,/D,/C,/B,,/ A,,/G,,/E,,/ | D,,[F,B,D] [F,B,D][F,B,D] [F,B,D][F,B,D] | %56
 [A,EG][A,EG] [A,EG][A,EG] [A,EG][A,EG] | [A,,A,][A,EG] [A,EG][A,EG] [A,EG][A,EG] | %58
 [D,,D,][A,EG] [A,EG][A,EG] [A,EG]!f![A,EG] | [D,,D,][F,B,D] [F,B,D][F,B,D] [F,B,D][F,B,D] | %60
 [D,,D,][A,EG] [A,EG][A,EG] [A,EG][A,EG] | [A,,A,][A,EG] [A,EG][A,EG] [A,EG][A,EG] |1 %62
 [A,,A,][A,EG] [A,EG][A,EG] [A,EG][A,EG] ||2 [D,,D,][F,B,D] [F,B,D][F,B,D] [F,B,D][F,B,D] |] %64
 z z z2 z2 | z6 | z6 | z/ z/ z/ z/ F,/A,/_C/=D/ z2 | %68
 [E,,E,]/F,/[E,,E,]/F,/ [E,,E,]/F,/[E,,E,]/F,/ [E,,E,]/F,/[E,,E,]/F,/ | %69
 [E,,E,]/F,/[E,,E,]/F,/ [E,,E,]/F,/[E,,E,]/F,/ [E,,E,]/F,/[E,,E,]/F,/ | %70
 [E,,E,]/F,/=D/ z/ E/ z/ D/ z/ E/ z/ D/ z/ | E/ z/ =D/ z/ E/ z/ D/ z/ E/ z/ D/ z/ | E6 | =D6 | %74
 (D6 | D6) |] A,,2 C,2 A,2 | C2 E2 A2 | E,2 G,2 B,2 | A,,2 C,2 A,2 | C2 E2 A2 | E,2 B,2 G2 | %82
 [A,,,A,,]2 [CA]2 z2 | [E,C]2 [F,E]2 [CA]2 | [A,,,A,,]2[K:treble] [Ec]2 z2 | [DA]2 [Ec]2 [Ae]2 | %86
 [A,,,A,,]2[K:treble] [ca]2[K:bass] z2 | [A,,,A,,]2[K:treble] [ca]2[K:bass] x2 | %88
 [A,,,A,,]2[K:treble] [ca]2[K:bass] z2 | [A,,,A,,]2 z2 z2 |] %90

